X: 1580
T: Angus John MacNeil Of Barra
R: slip jig
M: 9/8
K: Edorian
~C3 CB,C D2B,|~C3 CB,D GFD|~C3 CB,C D2F|~B,3 B,2C DFF:|
C2c cBG B2F|Gcc GBG FGB|1 C2c cBG B2F|~B,3 B,2C DFF:|2 cGG GBA G2F|~B,3 B,2C DFF||
GFD DFB, D2G|FDC C2A BGG|GFD DFB, D2F|~B,3 B,2C DFF:|
BcB GBG F2G|cGG GBG FGB|1 c2c cBG B2F|~B,3 B,2C DFF:|2 ~c3 cBA G2F|~B,3 B,2C DFF||
~B3 BAB c2A|~B3 BAc fec|~B3 BAB c2e|~A3 A2B cee:|
B2b baf a2e|fbb faf efa|1 B2b baf a2e|~A3 A2B cee:|2 bff fag f2e|~A3 A2B cee||
fec ceA c2f|ecB B2g aff|fec ceA c2e|~A3 A2B cee:|
aba faf e2f|bff faf efa|1 b2b baf a2e|~A3 A2B cee:|2 ~b3 bag f2e|~A3 A2B cee||
~E3 EDE F2D|~E3 EDF BAF|~E3 EDE F2A|~D3 D2E FAA:|
E2e edB d2A|Bee BdB ABd|1 E2e edB d2A|~D3 D2E FAA:|2 eBB Bdc B2A|~D3 D2E FAA||
BAF FAD F2B|AFE E2c dBB|BAF FAD F2A|~D3 D2E FAA:|
ded BdB A2B|eBB BdB ABd|1 e2e edB d2A|~D3 D2E FAA:|2 ~e3 edc B2A|~D3 D2E FAA||

